src/xmb/retrosystem/menu_apply_cog.svg

<?xml version="1.0" encoding="UTF-8" standalone="no"?>
<svg
   xmlns:dc="http://purl.org/dc/elements/1.1/"
   xmlns:cc="http://creativecommons.org/ns#"
   xmlns:rdf="http://www.w3.org/1999/02/22-rdf-syntax-ns#"
   xmlns:svg="http://www.w3.org/2000/svg"
   xmlns="http://www.w3.org/2000/svg"
   xmlns:sodipodi="http://sodipodi.sourceforge.net/DTD/sodipodi-0.dtd"
   xmlns:inkscape="http://www.inkscape.org/namespaces/inkscape"
   version="1.1"
   id="Calque_1"
   x="0px"
   y="0px"
   width="64px"
   height="64px"
   viewBox="0 0 64 64"
   enable-background="new 0 0 64 64"
   xml:space="preserve"
   sodipodi:docname="menu_apply_cog.svg"
   inkscape:export-filename="D:\git\retroarch-assets\xmb\retrosystem\png\menu_apply_cog.png"
   inkscape:export-xdpi="384"
   inkscape:export-ydpi="384"
   inkscape:version="0.92.3 (2405546, 2018-03-11)"><metadata
   id="metadata8"><rdf:RDF><cc:Work
       rdf:about=""><dc:format>image/svg+xml</dc:format><dc:type
         rdf:resource="http://purl.org/dc/dcmitype/StillImage" /><dc:title /></cc:Work></rdf:RDF></metadata><defs
   id="defs6" /><sodipodi:namedview
   pagecolor="#ffffff"
   bordercolor="#666666"
   borderopacity="1"
   objecttolerance="10"
   gridtolerance="10"
   guidetolerance="10"
   inkscape:pageopacity="0"
   inkscape:pageshadow="2"
   inkscape:window-width="1024"
   inkscape:window-height="705"
   id="namedview4"
   showgrid="true"
   inkscape:zoom="10.429825"
   inkscape:cx="19.360797"
   inkscape:cy="34.271243"
   inkscape:window-x="-8"
   inkscape:window-y="-8"
   inkscape:window-maximized="1"
   inkscape:current-layer="Calque_1"><inkscape:grid
     type="xygrid"
     id="grid815" /></sodipodi:namedview>

<path
   style="fill:#f2f2f2;stroke:#000000;stroke-width:1;stroke-miterlimit:4;stroke-dasharray:none"
   d="M 32 14.5 C 30.7242 14.5 29.483549 14.637474 28.28125 14.896484 L 27.988281 18.3125 C 25.774443 18.960022 23.782063 20.13325 22.15625 21.685547 L 18 19.75 C 16.333935 21.584067 15.270029 24.334916 14.5 26.75 L 18.142578 28.628906 C 17.881816 29.708688 17.736328 30.837945 17.736328 32 C 17.736328 33.162057 17.881821 34.289562 18.142578 35.371094 L 14.5 37.25 C 15.270029 39.665083 16.333935 42.415931 18 44.25 L 22.15625 42.316406 C 23.782064 43.868714 25.774444 45.039975 27.988281 45.6875 L 28.28125 49.103516 C 29.48355 49.360764 30.7242 49.5 32 49.5 C 33.275802 49.5 34.516045 49.362527 35.714844 49.103516 L 36.009766 45.6875 C 38.227101 45.039977 40.217938 43.866746 41.84375 42.314453 L 46 44.25 C 47.664312 42.415932 48.731719 39.665083 49.5 37.25 L 45.857422 35.371094 C 46.121682 34.289562 46.265625 33.162057 46.265625 32 C 46.265625 30.837944 46.121681 29.708688 45.857422 28.628906 L 49.5 26.75 C 48.731719 24.334916 47.664314 21.584067 46 19.75 L 41.84375 21.683594 C 40.217937 20.131286 38.227099 18.960022 36.009766 18.3125 L 35.714844 14.896484 C 34.516044 14.639237 33.275802 14.5 32 14.5 z M 38.080078 25.554688 A 1.250125 1.250125 0 0 1 39.068359 27.611328 L 30.244141 38.009766 A 1.250125 1.250125 0 0 1 28.400391 38.076172 L 24.994141 34.611328 A 1.250125 1.250125 0 0 1 26.273438 32.546875 L 28.988281 33.433594 L 37.271484 25.878906 A 1.250125 1.250125 0 0 1 38.080078 25.554688 z "
   id="Subsetting" /></svg>

<svg xmlns="http://www.w3.org/2000/svg" xml:space="preserve" width="64" height="64"><path d="M32 14.5c-1.276 0-2.516.137-3.719.396l-.293 3.416a14.24 14.24 0 0 0-5.832 3.374L18 19.75c-1.666 1.834-2.73 4.585-3.5 7l3.643 1.879A14.4 14.4 0 0 0 17.736 32c0 1.162.146 2.29.407 3.371L14.5 37.25c.77 2.415 1.834 5.166 3.5 7l4.156-1.934a14.24 14.24 0 0 0 5.832 3.371l.293 3.417c1.203.257 2.443.396 3.719.396s2.516-.137 3.715-.396l.295-3.416a14.2 14.2 0 0 0 5.834-3.374L46 44.25c1.664-1.834 2.732-4.585 3.5-7l-3.643-1.879A14.2 14.2 0 0 0 46.266 32c0-1.162-.144-2.291-.409-3.371L49.5 26.75c-.768-2.415-1.836-5.166-3.5-7l-4.156 1.934a14.2 14.2 0 0 0-5.834-3.372l-.295-3.416A17.7 17.7 0 0 0 32 14.5zm6.08 11.055a1.25 1.25 0 0 1 .988 2.056L30.244 38.01a1.25 1.25 0 0 1-1.844.066l-3.406-3.465a1.25 1.25 0 0 1 1.28-2.064l2.714.887 8.283-7.555a1.25 1.25 0 0 1 .81-.324z" style="fill:#f2f2f2;stroke:#000;stroke-width:1;stroke-miterlimit:4;stroke-dasharray:none"/></svg>
